configs/network-logos/shiden-logo.svg

<svg width="88" height="24" viewBox="0 0 88 24" fill="none" xmlns="http://www.w3.org/2000/svg">
<g clip-path="url(#clip0_10026_58550)">
<path d="M14.9279 5.19761C12.9379 5.76455 10.0014 6.95035 7.31157 9.38101C4.60843 11.9251 6.44356 14.194 6.46255 14.2165C6.46255 14.2165 5.47189 12.3895 7.86788 10.1384C7.89829 10.1118 10.9568 7.47037 15.405 6.20329C15.9722 6.0417 16.5455 5.90722 17.1091 5.80361L17.1483 5.79645L17.8644 4.6358L17.6886 4.64822C17.6775 4.64917 16.5599 4.73267 14.9279 5.19761Z" fill="#5928B1"/>
<path d="M17.9893 1.94479C17.5311 1.55914 17.0734 1.25395 17.0689 1.25091L17.0412 1.23291L17.0088 1.23675C16.9964 1.23833 15.7616 1.39027 14.061 1.87478C11.0183 2.74138 6.92628 4.51876 4.71055 8.06231C3.65805 9.67201 4.50514 11.598 4.50514 11.598L4.47961 11.1078C4.47684 11.0558 4.33147 5.86313 14.9754 2.83071C15.9072 2.56523 16.9077 2.32065 17.95 2.10308L18.1325 2.0651L17.9893 1.94479Z" fill="#764BC4"/>
<path d="M18.6327 2.62283C18.619 2.62428 17.2187 2.7733 15.2679 3.32888C13.2033 3.91716 10.197 5.05783 7.60115 7.15046C6.07045 8.33961 5.10164 9.77423 4.94303 11.0867C4.86524 11.7272 5.6159 13.0868 5.6159 13.0868L5.45808 12.6039C5.45088 12.5819 4.78008 10.3822 8.1793 7.82995C10.084 6.39955 12.069 5.4206 14.4255 4.74934C15.6404 4.40325 16.8045 4.17591 18.0913 3.93542L18.1366 3.92695L18.1563 3.885C18.2535 3.67656 18.7171 2.76377 18.7219 2.75464L18.7971 2.60602L18.6327 2.62283Z" fill="#764BC4"/>
<path d="M3.75596 9.30135C3.8842 7.24033 5.44504 5.33602 8.39865 3.63949C9.95517 2.66768 11.695 1.90418 13.5699 1.37003C15.1599 0.917018 16.504 0.781762 16.504 0.781762L15.4231 0C15.4131 0.00119111 14.4169 0.12361 12.9932 0.529249C3.86403 3.12996 2.7327 7.61089 2.83369 9.41213C3.01052 12.5525 6.70852 14.7858 6.70852 14.7858C6.70852 14.7858 3.56512 12.3723 3.75596 9.30135Z" fill="#BBA5E1"/>
<path d="M3.86908 18.8025C5.85914 18.2355 8.79562 17.0497 11.4854 14.6191C14.1886 12.075 12.3535 9.80608 12.3345 9.78357C12.3345 9.78357 13.3251 11.6106 10.9291 13.8617C10.8987 13.8883 7.84021 16.5297 3.39202 17.7968C2.82485 17.9584 2.25152 18.0929 1.68788 18.1965L1.64872 18.2036L0.932617 19.3643L1.1084 19.3519C1.11953 19.3509 2.23711 19.2674 3.86908 18.8025Z" fill="#5928B1"/>
<path d="M0.807719 22.0549C1.26591 22.4406 1.72358 22.7458 1.72816 22.7488L1.7558 22.7668L1.78829 22.763C1.8006 22.7614 3.03541 22.6094 4.736 22.1249C7.7787 21.2583 11.8707 19.481 14.0865 15.9374C15.139 14.3277 14.2919 12.4017 14.2919 12.4017L14.3174 12.8919C14.3202 12.9439 14.4656 18.1366 3.82159 21.169C2.88989 21.4345 1.88928 21.6791 0.847017 21.8966L0.664551 21.9346L0.807719 22.0549Z" fill="#764BC4"/>
<path d="M0.164388 21.377C0.178141 21.3755 1.57839 21.2265 3.52917 20.6709C5.5938 20.0826 8.60005 18.9419 11.1959 16.8493C12.7267 15.6602 13.6954 14.2256 13.8541 12.9131C13.9318 12.2726 13.1812 10.913 13.1812 10.913L13.339 11.3959C13.3462 11.4179 14.017 13.6176 10.6178 16.1699C8.7131 17.6002 6.72813 18.5792 4.37154 19.2504C3.15665 19.5965 1.99257 19.8239 0.705755 20.0644L0.660433 20.0728L0.640786 20.1148C0.543594 20.3232 0.0800324 21.236 0.0751861 21.2452L0 21.3938L0.164388 21.377Z" fill="#764BC4"/>
<path d="M15.0412 14.6987C14.913 16.7597 13.3521 18.664 10.3985 20.3605C8.84201 21.3323 7.10214 22.0958 5.22732 22.63C3.63727 23.083 2.29321 23.2182 2.29321 23.2182L3.37412 24C3.38407 23.9988 4.38037 23.8764 5.80403 23.4708C14.9332 20.87 16.0645 16.3891 15.9635 14.5879C15.7867 11.4475 12.0887 9.21417 12.0887 9.21417C12.0887 9.21417 15.2321 11.6277 15.0412 14.6987Z" fill="#BBA5E1"/>
<path d="M34.505 14.4014C34.505 14.7816 34.4562 15.1249 34.3585 15.4312C34.2609 15.7354 34.1325 16.0037 33.9733 16.236C33.8141 16.4684 33.6273 16.6659 33.4129 16.8286C33.2006 16.9933 32.9798 17.1274 32.7506 17.2309C32.5214 17.3345 32.2889 17.4115 32.0533 17.4622C31.8155 17.5108 31.5926 17.5351 31.3846 17.5351H23.8988V15.6055H31.3846C31.7582 15.6055 32.048 15.4956 32.2539 15.276C32.4598 15.0584 32.5627 14.7669 32.5627 14.4014C32.5627 14.224 32.5351 14.0603 32.4799 13.9103C32.4269 13.7624 32.3494 13.6336 32.2475 13.5237C32.1456 13.416 32.0204 13.3325 31.8718 13.2734C31.7253 13.2143 31.5629 13.1847 31.3846 13.1847H26.9205C26.6085 13.1847 26.271 13.1287 25.908 13.0168C25.545 12.9048 25.2075 12.7253 24.8954 12.4781C24.5856 12.2309 24.3266 11.9067 24.1185 11.5054C23.9126 11.104 23.8097 10.6139 23.8097 10.0352C23.8097 9.45638 23.9126 8.96736 24.1185 8.5681C24.3266 8.16887 24.5856 7.84462 24.8954 7.59535C25.2075 7.34613 25.545 7.1655 25.908 7.05353C26.271 6.9416 26.6085 6.88562 26.9205 6.88562H33.5275V8.81525H26.9205C26.5533 8.81525 26.2668 8.92723 26.0608 9.15113C25.8528 9.37292 25.7488 9.66758 25.7488 10.0352C25.7488 10.4069 25.8528 10.7005 26.0608 10.916C26.2668 11.1293 26.5533 11.236 26.9205 11.236H31.3846H31.4006C31.6086 11.2424 31.8293 11.2709 32.0628 11.3216C32.2963 11.3744 32.5288 11.4557 32.7602 11.5656C32.9915 11.6733 33.2123 11.8106 33.4224 11.9775C33.6305 12.1422 33.8152 12.3408 33.9765 12.5732C34.1399 12.8076 34.2683 13.0749 34.3617 13.3748C34.4573 13.6769 34.505 14.0191 34.505 14.4014ZM38.0712 6.88562V11.236H44.8853V6.88562H46.8243V17.5351H44.8853V13.1847H38.0712V17.5351H36.1321V6.88562H38.0712ZM51.0495 6.88562V17.5351H49.1072V6.88562H51.0495ZM63.9959 11.3406V13.0801C63.9959 13.7286 63.8825 14.3254 63.6553 14.8704C63.4302 15.4133 63.1182 15.8822 62.7193 16.2772C62.3221 16.6701 61.8499 16.9785 61.3025 17.2024C60.7546 17.4242 60.1604 17.5351 59.519 17.5351H54.2813C54.1414 17.5351 54.0119 17.5108 53.8931 17.4622C53.7719 17.4115 53.668 17.3429 53.5807 17.2563C53.4938 17.1697 53.4259 17.0672 53.3771 16.9489C53.3283 16.8307 53.3039 16.7018 53.3039 16.5624V7.85836C53.3039 7.72528 53.3283 7.59961 53.3771 7.48131C53.4259 7.3609 53.4938 7.25633 53.5807 7.16761C53.668 7.0789 53.7719 7.00917 53.8931 6.95848C54.0119 6.90991 54.1414 6.88562 54.2813 6.88562H59.519C60.1604 6.88562 60.7546 6.99759 61.3025 7.22149C61.8499 7.44328 62.3221 7.75065 62.7193 8.14354C63.1182 8.53855 63.4302 9.00961 63.6553 9.55669C63.8825 10.1038 63.9959 10.6984 63.9959 11.3406ZM62.0568 13.0801V11.3406C62.0568 10.9646 61.9952 10.6213 61.8723 10.3108C61.7514 9.9982 61.5781 9.73201 61.3534 9.51233C61.1303 9.29054 60.863 9.11943 60.551 8.99902C60.2411 8.87654 59.8972 8.81525 59.519 8.81525H55.2429V15.6055H59.519C59.8972 15.6055 60.2411 15.5442 60.551 15.4217C60.863 15.3013 61.1303 15.1302 61.3534 14.9084C61.5781 14.6887 61.7514 14.4247 61.8723 14.1163C61.9952 13.8057 62.0568 13.4604 62.0568 13.0801ZM74.6978 11.236V13.1847H68.5716V11.236H74.6978ZM75.5701 15.6055V17.5351H68.5716C68.3018 17.5351 68.008 17.4876 67.6894 17.3926C67.3712 17.2996 67.077 17.1454 66.8076 16.9299C66.5357 16.7145 66.3085 16.4346 66.1261 16.0903C65.9457 15.7459 65.8554 15.3245 65.8554 14.826V7.85836C65.8554 7.72528 65.8799 7.59961 65.9287 7.48131C65.9796 7.3609 66.0487 7.25633 66.1356 7.16761C66.2229 7.0789 66.3255 7.00917 66.4447 6.95848C66.5634 6.90991 66.693 6.88562 66.8332 6.88562H75.5701V8.81525H67.7945V14.826C67.7945 15.0774 67.8615 15.2696 67.9952 15.4027C68.1309 15.5379 68.3287 15.6055 68.5873 15.6055H75.5701ZM88.1378 6.88562V16.7113C88.1378 16.8486 88.1121 16.9775 88.0612 17.0978C88.0082 17.2162 87.9383 17.3186 87.851 17.4052C87.7641 17.4918 87.6611 17.5594 87.5423 17.608C87.4215 17.6587 87.294 17.684 87.1604 17.684C87.0412 17.684 86.9204 17.6618 86.7971 17.6175C86.6762 17.5731 86.5678 17.5013 86.4727 17.402L79.3848 10.0352V17.5351H77.4458V7.70944C77.4458 7.51086 77.5008 7.33131 77.6113 7.1708C77.7238 7.01025 77.867 6.89091 78.0412 6.81275C78.2258 6.73669 78.4145 6.7177 78.6077 6.75568C78.803 6.79371 78.9698 6.88454 79.1076 7.02821L86.1987 14.3856V6.88562H88.1378Z" fill="#5928B1"/>
</g>
<defs>
<clipPath id="clip0_10026_58550">
<rect width="88" height="24" fill="white"/>
</clipPath>
</defs>
</svg>

<svg xmlns="http://www.w3.org/2000/svg" fill="none" viewBox="0 0 88 24">
  <g clip-path="url(#shiden-logo_svg__a)">
    <path fill="#5928B1" d="M14.928 5.198C12.938 5.765 10 6.95 7.312 9.38c-2.704 2.544-.868 4.813-.85 4.835 0 0-.99-1.826 1.406-4.078.03-.026 3.089-2.668 7.537-3.935.567-.161 1.14-.296 1.704-.4l.04-.007.715-1.16-.175.012c-.012.001-1.13.085-2.761.55Z"/>
    <path fill="#764BC4" d="M17.99 1.945c-.459-.386-.917-.691-.921-.694l-.028-.018-.032.004c-.013.001-1.247.153-2.948.638-3.043.866-7.135 2.644-9.35 6.187-1.053 1.61-.206 3.536-.206 3.536l-.025-.49c-.003-.052-.149-5.245 10.495-8.277a42.96 42.96 0 0 1 2.975-.728l.183-.038-.144-.12Z"/>
    <path fill="#764BC4" d="M18.633 2.623c-.014.001-1.414.15-3.365.706-2.065.588-5.071 1.729-7.667 3.821-1.53 1.19-2.5 2.624-2.658 3.937-.078.64.673 2 .673 2l-.158-.483c-.007-.022-.678-2.222 2.721-4.774 1.905-1.43 3.89-2.41 6.246-3.08 1.215-.347 2.38-.574 3.666-.815l.046-.008.02-.042c.096-.208.56-1.121.565-1.13l.075-.149-.164.017Z"/>
    <path fill="#BBA5E1" d="M3.756 9.301c.128-2.06 1.689-3.965 4.643-5.662a20.201 20.201 0 0 1 5.17-2.269c1.59-.453 2.935-.588 2.935-.588L15.424 0c-.01.001-1.007.124-2.43.53-9.13 2.6-10.261 7.08-10.16 8.882.177 3.14 3.875 5.374 3.875 5.374S3.565 12.372 3.756 9.3Z"/>
    <path fill="#5928B1" d="M3.87 18.802c1.99-.567 4.926-1.752 7.615-4.183 2.704-2.544.869-4.813.85-4.835 0 0 .99 1.827-1.406 4.078-.03.026-3.089 2.668-7.537 3.935-.567.161-1.14.296-1.704.4l-.04.007-.715 1.16.175-.012c.012-.001 1.13-.085 2.761-.55Z"/>
    <path fill="#764BC4" d="M.808 22.055c.458.386.916.69.92.694l.028.018.032-.004c.013-.002 1.247-.154 2.948-.638 3.043-.867 7.135-2.644 9.35-6.188 1.053-1.61.206-3.535.206-3.535l.025.49c.003.052.149 5.245-10.495 8.277a43.54 43.54 0 0 1-2.975.728l-.182.038.143.12Z"/>
    <path fill="#764BC4" d="M.164 21.377c.014-.002 1.414-.15 3.365-.706 2.065-.588 5.071-1.73 7.667-3.822 1.53-1.189 2.5-2.623 2.658-3.936.078-.64-.673-2-.673-2l.158.483c.007.022.678 2.222-2.721 4.774-1.905 1.43-3.89 2.41-6.246 3.08-1.215.346-2.38.574-3.666.814l-.046.009-.02.042c-.096.208-.56 1.121-.565 1.13L0 21.394l.164-.017Z"/>
    <path fill="#BBA5E1" d="M15.041 14.699c-.128 2.06-1.689 3.965-4.643 5.661a20.204 20.204 0 0 1-5.17 2.27c-1.59.453-2.935.588-2.935.588L3.374 24c.01-.001 1.006-.124 2.43-.53 9.13-2.6 10.26-7.08 10.16-8.882-.177-3.14-3.875-5.374-3.875-5.374s3.143 2.414 2.952 5.485Z"/>
    <path fill="#5928B1" d="M34.505 14.401c0 .38-.049.724-.147 1.03a3.077 3.077 0 0 1-.385.805c-.159.232-.346.43-.56.593a3.288 3.288 0 0 1-.662.402 3.349 3.349 0 0 1-1.366.304h-7.486v-1.93h7.486c.373 0 .663-.11.869-.329.206-.218.309-.51.309-.875 0-.177-.028-.34-.083-.49a1.114 1.114 0 0 0-.232-.387 1.036 1.036 0 0 0-.376-.25 1.291 1.291 0 0 0-.487-.09H26.92c-.312 0-.649-.055-1.012-.167a3.087 3.087 0 0 1-1.013-.539 2.97 2.97 0 0 1-.776-.973c-.206-.401-.31-.891-.31-1.47s.104-1.068.31-1.467c.208-.4.467-.723.776-.973.313-.249.65-.43 1.013-.541a3.45 3.45 0 0 1 1.012-.168h6.608v1.93H26.92c-.368 0-.654.111-.86.335-.208.222-.312.517-.312.884 0 .372.104.665.312.881.206.213.492.32.86.32h4.48a3.343 3.343 0 0 1 1.36.33 3.3 3.3 0 0 1 .661.412c.209.164.393.363.555.595.163.235.291.502.385.802.095.302.143.644.143 1.026Zm3.566-7.515v4.35h6.814v-4.35h1.94v10.65h-1.94v-4.351h-6.814v4.35h-1.939V6.885h1.94Zm12.979 0v10.65h-1.943V6.885h1.943Zm12.946 4.455v1.74c0 .648-.114 1.244-.34 1.79a4.241 4.241 0 0 1-.937 1.406c-.397.393-.87.701-1.416.925a4.707 4.707 0 0 1-1.784.333h-5.238a.968.968 0 0 1-.7-.279.929.929 0 0 1-.204-.307 1.003 1.003 0 0 1-.073-.387V7.858a.979.979 0 0 1 .277-.69.943.943 0 0 1 .312-.21c.119-.048.248-.072.388-.072h5.238a4.69 4.69 0 0 1 1.784.335 4.26 4.26 0 0 1 1.416.923c.4.395.711.866.936 1.413.227.547.34 1.141.34 1.784Zm-1.94 1.74v-1.74c0-.376-.06-.72-.184-1.03a2.22 2.22 0 0 0-.519-.799A2.293 2.293 0 0 0 60.551 9a2.785 2.785 0 0 0-1.032-.184h-4.276v6.79h4.276c.378 0 .722-.06 1.032-.183a2.274 2.274 0 0 0 1.322-1.306 2.81 2.81 0 0 0 .184-1.036Zm12.642-1.845v1.949h-6.126v-1.949h6.126Zm.872 4.37v1.93h-6.998a3.11 3.11 0 0 1-.883-.143 2.545 2.545 0 0 1-.881-.463 2.612 2.612 0 0 1-.682-.84c-.18-.344-.27-.765-.27-1.264V7.858a.979.979 0 0 1 .28-.69.95.95 0 0 1 .697-.282h8.737v1.93h-7.775v6.01c0 .251.067.444.2.577.136.135.334.202.592.202h6.983Zm12.568-8.72v9.825a.982.982 0 0 1-.077.387 1.02 1.02 0 0 1-.21.307.978.978 0 0 1-.69.279c-.12 0-.24-.022-.364-.067a.854.854 0 0 1-.324-.215l-7.088-7.367v7.5h-1.94V7.71a.93.93 0 0 1 .166-.538c.113-.16.256-.28.43-.358a.967.967 0 0 1 1.067.215l7.09 7.358v-7.5h1.94Z"/>
  </g>
  <defs>
    <clipPath id="shiden-logo_svg__a">
      <path fill="#fff" d="M0 0h88v24H0z"/>
    </clipPath>
  </defs>
</svg>
